X:7267
T:The Red Coat
O:england
M:4/4
L:1/8
C:Trad.
S:Arr. Barra MacNeils
R:Reel
K:G
d2|:BABd (3eee g2|DGBA BGGA|BABd (3eee g2|afgB (3AAA Ad:||
g|bgaf gdeg|1DGBA BGGg|bgaf gaba|gedB (3AAA A2:||
|2DGBA BGGA|BABd (3eee g2|afgB (3AAA A2||


